X:448
T:Monte Carlo
T:The Man Who Broke the Bank at Monte Carlo
S:Colin Hume's website,  colinhume.com  - chords can also be printed below the stave.
Q:3/8=110
M:6/8
L:1/8
K:G
DE | "D7"F2F F2F | "/"F2F FED | "G"B2B B2B | "/"B3- BDD |\
"D7"c2c c2c | "/"c3- cAF | "G7"d2d d2d | "E7"d3 zeB |
"Am"c2c c2c | "D7"c2c cdA | "G7"B2B B2B | "E7"B2B BcB |\
"A7"A2A ^G2A | "D7"B2A F2D | "/"A6 | "G"G3- G |]

